icons/i_training_class_fill.svg

<svg width="48" height="48" viewBox="0 0 48 48" fill="none" xmlns="http://www.w3.org/2000/svg">
<path fill-rule="evenodd" clip-rule="evenodd" d="M6 6H37V11H35V8H8V31H29.3871V33H6V6ZM36 19C37.6569 19 39 17.6569 39 16C39 14.3431 37.6569 13 36 13C34.3431 13 33 14.3431 33 16C33 17.6569 34.3431 19 36 19ZM38.0314 21.0107C39.3299 21.0107 40.3582 21.5937 41.0303 22.4959C41.6595 23.3405 41.9258 24.3864 41.9861 25.3507C42.0472 26.3298 41.9056 27.356 41.5894 28.2701C41.2881 29.1407 40.7815 30.0406 40 30.6579V40.5C40 41.2805 39.4015 41.9305 38.6237 41.9949C37.8459 42.0593 37.1487 41.5164 37.0204 40.7466L35.7293 33H35.4324L33.9743 40.7764C33.8316 41.5378 33.1325 42.0653 32.3612 41.9936C31.5899 41.9219 31 41.2746 31 40.5V26.2328C30.8874 26.4044 30.7831 26.5652 30.6911 26.7082C30.5726 26.8922 30.4752 27.0453 30.4078 27.152L30.3303 27.275L30.3105 27.3066L30.3047 27.316C30.0308 27.7555 29.5493 28.023 29.0314 28.023H24.0314C23.203 28.023 22.5314 27.3515 22.5314 26.523C22.5314 25.6946 23.203 25.023 24.0314 25.023H28.208C28.4506 24.6472 28.7705 24.1594 29.1067 23.6689C29.457 23.1577 29.8432 22.6169 30.1862 22.1935C30.3539 21.9864 30.5413 21.7699 30.7292 21.5924C30.8212 21.5056 30.9497 21.3932 31.105 21.2935C31.2158 21.2224 31.5575 21.0107 32.0314 21.0107H38.0314Z" fill="black"/>
</svg>

<svg
  xmlns="http://www.w3.org/2000/svg"
  width="24"
  height="24"
  viewBox="0 0 24 24"
  fill="none"
  stroke="currentColor"
  stroke-width="2"
  stroke-linecap="round"
  stroke-linejoin="round"
>
  <path
    fill-rule="evenodd"
    d="M6 6h31v5h-2V8H8v23h21.387v2H6zm30 13a3 3 0 1 0 0-6 3 3 0 0 0 0 6m2.031 2.01c1.299 0 2.327.584 3 1.486.629.845.895 1.89.955 2.855.061.979-.08 2.005-.397 2.92-.3.87-.807 1.77-1.589 2.387V40.5a1.5 1.5 0 0 1-2.98.247L35.73 33h-.298l-1.458 7.776A1.5 1.5 0 0 1 31 40.5V26.233a63 63 0 0 0-.592.919l-.078.123-.02.032-.005.009a1.5 1.5 0 0 1-1.274.707h-5a1.5 1.5 0 1 1 0-3h4.177c.243-.376.563-.864.899-1.354.35-.511.736-1.052 1.08-1.476.167-.207.354-.423.542-.6.092-.087.22-.2.376-.3a1.7 1.7 0 0 1 .926-.282z"
    clip-rule="evenodd"
  />
</svg>
